images/callia-logo.svg

<?xml version="1.0" encoding="UTF-8"?>
<svg width="171px" height="59px" viewBox="0 0 171 59" version="1.1" xmlns="http://www.w3.org/2000/svg" xmlns:xlink="http://www.w3.org/1999/xlink">
    <!-- Generator: Sketch 50.2 (55047) - http://www.bohemiancoding.com/sketch -->
    <title>callia-logo</title>
    <desc>Created with Sketch.</desc>
    <defs></defs>
    <g id="Callia-Responsive-Web" stroke="none" stroke-width="1" fill="none" fill-rule="evenodd">
        <g id="Callia-Responsive-Desktop-Mainpage" transform="translate(-723.000000, -30.000000)">
            <g id="sector-1">
                <g id="header" transform="translate(0.000000, 30.000000)">
                    <g id="callia-logo" transform="translate(723.000000, 0.000000)">
                        <g id="logo">
                            <path d="M56.1682493,17.9389292 C55.9939763,17.6256475 55.638368,17.4596581 55.2864985,17.5267602 L31.0232938,22.1565982 C31.0185163,22.1574292 31.0145697,22.1599222 31.0097923,22.1609609 C30.9539169,22.1725947 30.899911,22.1898377 30.8475668,22.212482 C30.8390504,22.2162215 30.8307418,22.2199609 30.8224332,22.2239081 C30.771543,22.2480067 30.7233531,22.2775067 30.6780712,22.3117849 C30.6712166,22.3169785 30.6645697,22.3219644 30.6579228,22.3273658 C30.6236499,22.3547884 30.5910386,22.3840806 30.5613353,22.4171123 L14.3489614,40.443482 C14.1102967,40.708982 14.0677151,41.0976757 14.2438576,41.4086722 C14.3932047,41.6725102 14.671543,41.8301898 14.9667062,41.8301898 C15.0192582,41.8301898 15.0724332,41.8252039 15.1254006,41.8148165 L39.0394362,37.1625419 C39.0413056,37.1621264 39.0429674,37.1610877 39.0446291,37.1606722 C39.1056973,37.1484151 39.1648961,37.1293025 39.2213947,37.1037496 C39.2365579,37.0971018 39.2496439,37.0871299 39.2643917,37.0794433 C39.304273,37.0586687 39.3431157,37.0364398 39.3792582,37.009225 C39.3979525,36.995306 39.4139466,36.9786863 39.4313947,36.9631053 C39.451543,36.9450313 39.4737685,36.9296581 39.4922552,36.9095067 L56.0537982,18.9055736 C56.2964095,18.6417356 56.3425223,18.2522109 56.1682493,17.9389292" id="Fill-1" fill="#FFFFFF"></path>
                            <path d="M50.4633739,29.5 C50.4633739,21.1494225 43.6949763,14.3800035 35.3456588,14.3800035 C26.9961335,14.3800035 20.2277359,21.1494225 20.2277359,29.5 C20.2277359,37.8505775 26.9961335,44.6202042 35.3456588,44.6202042 C43.6949763,44.6202042 50.4633739,37.8505775 50.4633739,29.5" id="Fill-3" fill="#FFB900"></path>
                            <path d="M8.70735608,29.5 C8.70735608,22.8271831 11.3690178,16.1500035 16.0097893,11.1807077 C20.9916291,5.84619366 27.8404125,2.9084507 35.2948932,2.9084507 C41.5055757,2.9084507 47.2254273,5.04990141 51.7561098,8.63269718 L51.7482166,8.6403838 C53.3702641,9.94648592 54.8786914,11.3946866 56.1511543,13.0444014 L56.1590475,13.0362993 C59.7413027,17.5676655 61.8824303,23.2883803 61.8824303,29.5 C61.8824303,44.1627465 49.9554273,56.0915493 35.2948932,56.0915493 C20.6343591,56.0915493 8.70735608,44.1627465 8.70735608,29.5 Z M58.2262285,48.0311937 C62.3288101,42.9625951 64.7904421,36.5139366 64.7904421,29.5 C64.7904421,22.4860634 62.3288101,16.0374049 58.2262285,10.9690141 L59.2307389,9.96414437 C60.4467033,8.74820423 60.4467033,6.77648239 59.2307389,5.56054225 C58.0149822,4.34439437 56.0435579,4.34439437 54.8278012,5.56054225 L53.8230831,6.56520423 C48.755457,2.46200352 42.3077715,0 35.2948932,0 C28.109819,0 21.4278309,2.46698944 16.1664065,7.0035493 L14.7234095,5.56054225 C13.5074451,4.34439437 11.5360208,4.34439437 10.3202641,5.56054225 C9.10450742,6.77648239 9.10450742,8.74820423 10.3202641,9.96414437 L11.9065846,11.5507042 C7.99821662,16.7188134 5.79934421,23.1084718 5.79934421,29.5 C5.79934421,36.5139366 8.26097626,42.9625951 12.3635579,48.0309859 L10.3202641,50.074588 C9.10450742,51.2907359 9.10450742,53.2624577 10.3202641,54.4783979 C11.5360208,55.694338 13.5074451,55.694338 14.7234095,54.4783979 L16.7667033,52.4347958 C21.8343294,56.5379965 28.2820148,59 35.2948932,59 C42.3077715,59 48.755457,56.5379965 53.8230831,52.4347958 L55.347089,53.9590317 C56.5628457,55.1749718 58.53427,55.1749718 59.7500267,53.9590317 C60.9659911,52.7430915 60.9659911,50.7713697 59.7500267,49.5552218 L58.2262285,48.0311937 Z" id="Fill-5" fill="#FFFFFF"></path>
                            <path d="M38.2082849,35.7769352 L31.6978694,35.7769352 C31.1195905,35.7769352 30.6491157,35.3063894 30.6491157,34.7280232 L30.6491157,30.331069 L38.2082849,30.331069 C39.7094421,30.331069 40.9308071,31.5526183 40.9308071,33.0540021 C40.9308071,34.5553859 39.7094421,35.7769352 38.2082849,35.7769352 Z M30.6491157,24.272143 C30.6491157,23.6937768 31.1195905,23.223231 31.6978694,23.223231 L38.2082849,23.223231 C39.7094421,23.223231 40.9308071,24.4447803 40.9308071,25.9461641 C40.9308071,27.4475479 39.7094421,28.6690972 38.2082849,28.6690972 L30.6491157,28.6690972 L30.6491157,24.272143 Z M40.766089,29.5000831 C41.870095,28.7029599 42.5925282,27.4086993 42.5925282,25.9461641 C42.5925282,23.5284106 40.6256736,21.5612592 38.2082849,21.5612592 L38.0894718,21.5612592 L38.0894718,18.9367979 C38.0894718,18.4778859 37.717454,18.105812 37.2586113,18.105812 C36.7997685,18.105812 36.4277507,18.4778859 36.4277507,18.9367979 L36.4277507,21.5612592 L33.9114896,21.5612592 L33.9114896,18.9367979 C33.9114896,18.4778859 33.5394718,18.105812 33.0806291,18.105812 C32.6217864,18.105812 32.2497685,18.4778859 32.2497685,18.9367979 L32.2497685,21.5612592 L31.6978694,21.5612592 C30.2033591,21.5612592 28.9873947,22.777407 28.9873947,24.272143 L28.9873947,28.6690972 L28.9873947,30.331069 L28.9873947,34.7280232 C28.9873947,36.2227592 30.2033591,37.438907 31.6978694,37.438907 L32.2497685,37.438907 L32.2497685,40.0631606 C32.2497685,40.5220725 32.6217864,40.8941465 33.0806291,40.8941465 C33.5394718,40.8941465 33.9114896,40.5220725 33.9114896,40.0631606 L33.9114896,37.438907 L36.4277507,37.438907 L36.4277507,40.0631606 C36.4277507,40.5220725 36.7997685,40.8941465 37.2586113,40.8941465 C37.717454,40.8941465 38.0894718,40.5220725 38.0894718,40.0631606 L38.0894718,37.438907 L38.2082849,37.438907 C40.6256736,37.438907 42.5925282,35.4717556 42.5925282,33.0540021 C42.5925282,31.5914669 41.870095,30.2972063 40.766089,29.5000831 Z" id="Fill-7" fill="#003972"></path>
                            <path d="M37.5105905,9.16924401 C37.5105905,8.0370257 36.592905,7.11899401 35.4606499,7.11899401 C34.3286024,7.11899401 33.4109169,8.0370257 33.4109169,9.16924401 C33.4109169,10.3014623 34.3286024,11.219494 35.4606499,11.219494 C36.592905,11.219494 37.5105905,10.3014623 37.5105905,9.16924401" id="Fill-9" fill="#FFFFFF"></path>
                            <path d="M16.7557151,29.4147824 C16.7557151,28.2825641 15.8380297,27.3645324 14.7057745,27.3645324 C13.573727,27.3645324 12.6560415,28.2825641 12.6560415,29.4147824 C12.6560415,30.5470007 13.573727,31.4650324 14.7057745,31.4650324 C15.8380297,31.4650324 16.7557151,30.5470007 16.7557151,29.4147824" id="Fill-11" fill="#FFFFFF"></path>
                            <path d="M57.2405994,29.4147824 C57.2405994,28.2825641 56.3229139,27.3645324 55.1906588,27.3645324 C54.0586113,27.3645324 53.1409258,28.2825641 53.1409258,29.4147824 C53.1409258,30.5470007 54.0586113,31.4650324 55.1906588,31.4650324 C56.3229139,31.4650324 57.2405994,30.5470007 57.2405994,29.4147824" id="Fill-13" fill="#FFFFFF"></path>
                            <path d="M37.5105905,49.6603415 C37.5105905,48.5279155 36.592905,47.6100915 35.4606499,47.6100915 C34.3286024,47.6100915 33.4109169,48.5279155 33.4109169,49.6603415 C33.4109169,50.7925599 34.3286024,51.7105915 35.4606499,51.7105915 C36.592905,51.7105915 37.5105905,50.7925599 37.5105905,49.6603415" id="Fill-15" fill="#FFFFFF"></path>
                            <path d="M65.4439139,46.7988415 C65.2700564,46.7988415 65.0937062,46.7552148 64.9316884,46.6629754 C64.4329644,46.3796092 64.2584837,45.7455669 64.5418071,45.2467676 C65.9918665,42.6941866 67.0944184,39.9596197 67.8185134,37.1184789 C67.9601751,36.562757 68.5251602,36.2270387 69.0814214,36.3685141 C69.6372671,36.5101972 69.9729347,37.0756831 69.831273,37.6318204 C69.0614807,40.6522465 67.8893442,43.5594507 66.3478902,46.2730352 C66.1565846,46.6097923 65.8053383,46.7988415 65.4439139,46.7988415" id="Fill-17" fill="#FFFFFF"></path>
                            <path d="M1.0398635,26.9093599 C1.00600593,26.9093599 0.971732938,26.9076979 0.937252226,26.9043739 C0.366451039,26.8484901 -0.0508486647,26.3401345 0.00502670623,25.7692472 C0.492118694,20.7976662 1.99805341,16.0814056 4.4808724,11.7517613 C4.76606528,11.2542085 5.4004273,11.0817789 5.89852819,11.3674303 C6.39600593,11.6528739 6.56799407,12.2877472 6.28280119,12.7853 C3.94725223,16.8581697 2.5304273,21.2948035 2.07220772,25.9718 C2.01965579,26.5082014 1.56787537,26.9093599 1.0398635,26.9093599" id="Fill-19" fill="#FFB900"></path>
                        </g>
                        <path d="M88.64,18.68 C91.12,18.68 93.24,18.84 94.96,19.12 C95.36,19.2 95.56,19.44 95.56,19.84 L95.56,22.28 C95.56,22.68 95.36,22.88 94.92,22.88 L88.64,22.88 C86.56,22.88 85.24,23.32 84.64,24.24 C84.08,25.12 83.8,27 83.8,29.92 C83.8,32.84 84.08,34.72 84.64,35.64 C85.24,36.56 86.56,37 88.64,37 L94.92,37 C95.36,37 95.56,37.2 95.56,37.6 L95.56,40.04 C95.56,40.44 95.36,40.68 94.96,40.76 C93.24,41.04 91.12,41.2 88.64,41.2 C84.6,41.2 82,40.48 80.76,39 C79.52,37.52 78.92,34.52 78.92,29.92 C78.92,25.16 79.28,22.76 80.72,20.96 C82.2,19.16 84.48,18.68 88.64,18.68 Z M107.541053,18.68 C114.381053,18.68 116.901053,20.76 116.901053,25.24 L116.901053,39.16 C116.901053,39.76 116.621053,40.12 116.101053,40.32 C114.061053,40.92 111.061053,41.2 107.101053,41.2 C104.021053,41.2 101.861053,40.76 100.581053,39.92 C99.3010527,39.04 98.6610527,37.24 98.6610527,34.52 C98.6610527,29.68 101.021053,28.16 106.261053,28.16 L112.061053,28.16 L112.061053,26.08 C112.061053,23.84 110.741053,22.88 107.541053,22.88 L100.981053,22.88 C100.501053,22.88 100.381053,22.76 100.381053,22.28 L100.381053,19.84 C100.381053,19.36 100.501053,19.32 100.941053,19.2 C102.821053,18.84 105.021053,18.68 107.541053,18.68 Z M112.061053,36.72 L112.061053,31.64 L106.541053,31.64 C104.341053,31.64 103.461053,32.36 103.461053,34.32 C103.461053,36.56 104.461053,37.16 107.501053,37.16 C109.421053,37.16 110.941053,37 112.061053,36.72 Z M122.922105,10.4 L126.562105,10.4 C126.962105,10.4 127.162105,10.6 127.162105,11 L127.162105,40.4 C127.162105,40.8 126.962105,41 126.562105,41 L122.922105,41 C122.522105,41 122.322105,40.8 122.322105,40.4 L122.322105,11 C122.322105,10.6 122.522105,10.4 122.922105,10.4 Z M133.383158,10.4 L137.023158,10.4 C137.423158,10.4 137.623158,10.6 137.623158,11 L137.623158,40.4 C137.623158,40.8 137.423158,41 137.023158,41 L133.383158,41 C132.983158,41 132.783158,40.8 132.783158,40.4 L132.783158,11 C132.783158,10.6 132.983158,10.4 133.383158,10.4 Z M145.684211,9.8 C147.604211,9.8 148.564211,10.72 148.564211,12.56 C148.564211,14.4 147.604211,15.32 145.684211,15.32 C143.804211,15.32 142.764211,14.32 142.764211,12.56 C142.764211,10.8 143.804211,9.8 145.684211,9.8 Z M143.844211,18.88 L147.484211,18.88 C147.884211,18.88 148.084211,19.08 148.084211,19.48 L148.084211,40.4 C148.084211,40.8 147.884211,41 147.484211,41 L143.844211,41 C143.444211,41 143.244211,40.8 143.244211,40.4 L143.244211,19.48 C143.244211,19.08 143.444211,18.88 143.844211,18.88 Z M161.305264,18.68 C168.145263,18.68 170.665264,20.76 170.665264,25.24 L170.665264,39.16 C170.665264,39.76 170.385264,40.12 169.865264,40.32 C167.825264,40.92 164.825264,41.2 160.865264,41.2 C157.785264,41.2 155.625264,40.76 154.345263,39.92 C153.065264,39.04 152.425263,37.24 152.425263,34.52 C152.425263,29.68 154.785264,28.16 160.025263,28.16 L165.825264,28.16 L165.825264,26.08 C165.825264,23.84 164.505264,22.88 161.305264,22.88 L154.745264,22.88 C154.265264,22.88 154.145263,22.76 154.145263,22.28 L154.145263,19.84 C154.145263,19.36 154.265264,19.32 154.705264,19.2 C156.585263,18.84 158.785264,18.68 161.305264,18.68 Z M165.825264,36.72 L165.825264,31.64 L160.305264,31.64 C158.105264,31.64 157.225264,32.36 157.225264,34.32 C157.225264,36.56 158.225264,37.16 161.265264,37.16 C163.185264,37.16 164.705264,37 165.825264,36.72 Z" id="callia" fill="#FFFFFF"></path>
                    </g>
                </g>
            </g>
        </g>
    </g>
</svg>

<svg width="171" height="59" xmlns="http://www.w3.org/2000/svg"><g fill="none" fill-rule="evenodd"><path d="M56.168 17.939a.83.83 0 0 0-.882-.412l-24.263 4.63c-.004 0-.008.003-.013.004a.837.837 0 0 0-.332.15l-.02.016a.804.804 0 0 0-.097.09L14.35 40.443a.831.831 0 0 0 .776 1.372l23.914-4.652.006-.002a.82.82 0 0 0 .176-.057c.016-.007.029-.017.043-.025a.813.813 0 0 0 .115-.07c.019-.014.035-.03.052-.046.02-.018.043-.033.061-.053l16.562-18.004a.831.831 0 0 0 .114-.967" fill="#FFF"/><path d="M50.463 29.5c0-8.35-6.768-15.12-15.117-15.12-8.35 0-15.118 6.77-15.118 15.12s6.768 15.12 15.118 15.12c8.349 0 15.117-6.77 15.117-15.12" fill="#FFB900"/><path d="M8.707 29.5c0-6.673 2.662-13.35 7.303-18.32 4.982-5.334 11.83-8.272 19.285-8.272 6.21 0 11.93 2.142 16.461 5.725l-.008.007c1.622 1.306 3.13 2.755 4.403 4.404l.008-.008A26.464 26.464 0 0 1 61.882 29.5c0 14.663-11.927 26.592-26.587 26.592S8.707 44.162 8.707 29.5zm49.52 18.531A29.362 29.362 0 0 0 64.79 29.5a29.36 29.36 0 0 0-6.564-18.531l1.005-1.005a3.114 3.114 0 0 0-4.403-4.403l-1.005 1.004A29.351 29.351 0 0 0 35.295 0C28.11 0 21.428 2.467 16.166 7.004L14.723 5.56a3.113 3.113 0 1 0-4.403 4.403l1.587 1.587C7.998 16.719 5.799 23.108 5.799 29.5a29.36 29.36 0 0 0 6.565 18.531l-2.044 2.044a3.115 3.115 0 0 0 4.403 4.403l2.044-2.043A29.351 29.351 0 0 0 35.295 59c7.013 0 13.46-2.462 18.528-6.565l1.524 1.524a3.113 3.113 0 1 0 4.403-4.404l-1.524-1.524z" fill="#FFF"/><path d="M38.208 35.777h-6.51a1.05 1.05 0 0 1-1.049-1.049v-4.397h7.56a2.726 2.726 0 0 1 2.722 2.723 2.726 2.726 0 0 1-2.723 2.723zM30.65 24.272c0-.578.47-1.049 1.049-1.049h6.51a2.726 2.726 0 0 1 2.723 2.723 2.726 2.726 0 0 1-2.723 2.723H30.65v-4.397zM40.766 29.5a4.378 4.378 0 0 0 1.827-3.554 4.39 4.39 0 0 0-4.385-4.385h-.119v-2.624a.831.831 0 1 0-1.661 0v2.624H33.91v-2.624a.831.831 0 1 0-1.661 0v2.624h-.552a2.714 2.714 0 0 0-2.71 2.711v10.456a2.714 2.714 0 0 0 2.71 2.71h.552v2.625a.831.831 0 1 0 1.661 0V37.44h2.517v2.624a.831.831 0 1 0 1.661 0V37.44h.12a4.39 4.39 0 0 0 4.384-4.385 4.378 4.378 0 0 0-1.827-3.554z" fill="#003972"/><path d="M37.51 9.17a2.05 2.05 0 1 0-4.1-.001 2.05 2.05 0 0 0 4.1 0M16.756 29.415a2.05 2.05 0 1 0-4.1 0 2.05 2.05 0 0 0 4.1 0m40.484 0a2.05 2.05 0 1 0-4.1 0 2.05 2.05 0 0 0 4.1 0M37.51 49.66a2.05 2.05 0 1 0-4.1 0 2.05 2.05 0 0 0 4.1 0m27.934-2.861a1.039 1.039 0 0 1-.902-1.552 32.919 32.919 0 0 0 3.277-8.129 1.039 1.039 0 1 1 2.012.514 35 35 0 0 1-3.483 8.641 1.038 1.038 0 0 1-.904.526" fill="#FFF"/><path d="M1.04 26.91a1.039 1.039 0 0 1-1.035-1.14 34.82 34.82 0 0 1 4.476-14.018 1.038 1.038 0 1 1 1.802 1.033 32.756 32.756 0 0 0-4.21 13.187 1.039 1.039 0 0 1-1.033.937" fill="#FFB900"/><path d="M88.64 18.68c2.48 0 4.6.16 6.32.44.4.08.6.32.6.72v2.44c0 .4-.2.6-.64.6h-6.28c-2.08 0-3.4.44-4 1.36-.56.88-.84 2.76-.84 5.68s.28 4.8.84 5.72c.6.92 1.92 1.36 4 1.36h6.28c.44 0 .64.2.64.6v2.44c0 .4-.2.64-.6.72-1.72.28-3.84.44-6.32.44-4.04 0-6.64-.72-7.88-2.2-1.24-1.48-1.84-4.48-1.84-9.08 0-4.76.36-7.16 1.8-8.96 1.48-1.8 3.76-2.28 7.92-2.28zm18.901 0c6.84 0 9.36 2.08 9.36 6.56v13.92c0 .6-.28.96-.8 1.16-2.04.6-5.04.88-9 .88-3.08 0-5.24-.44-6.52-1.28-1.28-.88-1.92-2.68-1.92-5.4 0-4.84 2.36-6.36 7.6-6.36h5.8v-2.08c0-2.24-1.32-3.2-4.52-3.2h-6.56c-.48 0-.6-.12-.6-.6v-2.44c0-.48.12-.52.56-.64 1.88-.36 4.08-.52 6.6-.52zm4.52 18.04v-5.08h-5.52c-2.2 0-3.08.72-3.08 2.68 0 2.24 1 2.84 4.04 2.84 1.92 0 3.44-.16 4.56-.44zm10.861-26.32h3.64c.4 0 .6.2.6.6v29.4c0 .4-.2.6-.6.6h-3.64c-.4 0-.6-.2-.6-.6V11c0-.4.2-.6.6-.6zm10.461 0h3.64c.4 0 .6.2.6.6v29.4c0 .4-.2.6-.6.6h-3.64c-.4 0-.6-.2-.6-.6V11c0-.4.2-.6.6-.6zm12.301-.6c1.92 0 2.88.92 2.88 2.76 0 1.84-.96 2.76-2.88 2.76-1.88 0-2.92-1-2.92-2.76 0-1.76 1.04-2.76 2.92-2.76zm-1.84 9.08h3.64c.4 0 .6.2.6.6V40.4c0 .4-.2.6-.6.6h-3.64c-.4 0-.6-.2-.6-.6V19.48c0-.4.2-.6.6-.6zm17.461-.2c6.84 0 9.36 2.08 9.36 6.56v13.92c0 .6-.28.96-.8 1.16-2.04.6-5.04.88-9 .88-3.08 0-5.24-.44-6.52-1.28-1.28-.88-1.92-2.68-1.92-5.4 0-4.84 2.36-6.36 7.6-6.36h5.8v-2.08c0-2.24-1.32-3.2-4.52-3.2h-6.56c-.48 0-.6-.12-.6-.6v-2.44c0-.48.12-.52.56-.64 1.88-.36 4.08-.52 6.6-.52zm4.52 18.04v-5.08h-5.52c-2.2 0-3.08.72-3.08 2.68 0 2.24 1 2.84 4.04 2.84 1.92 0 3.44-.16 4.56-.44z" fill="#FFF"/></g></svg>
